symbols/web/markunread_mailbox/materialsymbolssharp/markunread_mailbox_grad200_24px.svg

<svg xmlns="http://www.w3.org/2000/svg" height="24" width="24"><path d="M5.5 13.8V9.75H3.85v10.2h16.3V9.75h-10V7.1H22.8v15.5H1.2V7.1h4.3V1.25h9.1v4.7H8.15v7.85Zm-1.65 0V9.75v10.2-10.2 4.05Z"/></svg>

<svg xmlns="http://www.w3.org/2000/svg" height="24" width="24"><path d="M5.5 13.8V9.75H3.85V19.95H20.15V9.75H10.15V7.1H22.8V22.6H1.2V7.1H5.5V1.25H14.6V5.95H8.15V13.8ZM3.85 13.8V9.75V19.95V9.75V13.8Z"/></svg>
